!!!OTL: Krauserlin, Mauserlin
!!!ARE: Europa, Mitteleuropa, Deutschland
!!!SCT: A0197B
!!!YEM: Copyright 1995, estate of Helmut Schaffrath.
**kern
*ICvox
*Ivox
*M4/2
*k[f#]
*G:
{2g
=1
1g
2g
2g
=2
1.a
2b
=3
1.cc
2cc
=4
1cc
2r}
{2cc
=5
2cc
2cc
2b
2cc
=6
1.dd
2cc
=7
2b
4a
4g
1a
=8
1g
2r}
{2g
=9
1g
2g
2g
=10
1.a
2b
=11
1.cc
2cc
=12
1cc
2r}
{2cc
=13
2cc
2cc
2b
2cc
=14
1.dd
2cc
=15
2b
4a
4g
1a
=16
1g
2r}
{2g
=17
1cc
1cc
=18
1b
1cc
=19
2dd
2cc
1dd
=20
1cc
2r}
{2cc
=21
2b
2cc
2a
2cc
=22
2dd
2cc
2a
2g
=23
2.cc
4dd
2ee
2a
=24
1.dd
2cc
=25
2b
2cc
1a
=26
1.g}
==
!!!AGN: Romanze, Ballade, Lied
!! Baseler handschr. Tenor. (Mitte des 16. Jh. Fol. 22)
!!!ONB: ESAC (Essen Associative Code) Database: ALTDEU
!!!AMT: simple quadruple
!!!AIN: vox
!!!EED: Helmut Schaffrath
!!!EEV: 1.0
*-
